packages/ui-icons/svg/Line/toggle-left.svg

<svg viewBox="0 0 1920 1920" version="1.1" xmlns="http://www.w3.org/2000/svg">
    <path d="M847.058824,113 C1103.20941,113 1342.30588,226.844706 1503.13412,425.282353 L1503.13412,425.282353 L1415.26588,496.435294 C1276.00941,324.538824 1068.98824,225.941176 847.058824,225.941176 C442.277647,225.941176 112.941176,555.277647 112.941176,960.058824 C112.941176,1364.84 442.277647,1694.17647 847.058824,1694.17647 C1068.98824,1694.17647 1276.00941,1595.57882 1415.26588,1423.68235 L1415.26588,1423.68235 L1503.13412,1494.83529 C1342.30588,1693.27294 1103.20941,1807.11765 847.058824,1807.11765 C379.934118,1807.11765 0,1427.18353 0,960.058824 C0,492.934118 379.934118,113 847.058824,113 Z M976.534588,524.817412 L1056.384,604.779765 L757.428706,903.622118 L1920.04518,903.622118 L1920.04518,1016.45035 L757.428706,1016.45035 L1056.384,1315.40565 L976.534588,1395.25506 L541.372235,960.092706 L976.534588,524.817412 Z" stroke="none" stroke-width="1" fill-rule="evenodd"/>
</svg>

<svg viewBox="0 0 1920 1920" xmlns="http://www.w3.org/2000/svg">
    <path d="M847.059 113c256.15 0 495.247 113.845 656.075 312.282l-87.868 71.153c-139.257-171.896-346.278-270.494-568.207-270.494-404.781 0-734.118 329.337-734.118 734.118 0 404.781 329.337 734.117 734.118 734.117 221.93 0 428.95-98.597 568.207-270.494l87.868 71.153c-160.828 198.438-399.925 312.283-656.075 312.283C379.934 1807.118 0 1427.184 0 960.058 0 492.935 379.934 113 847.059 113Zm129.476 411.817 79.849 79.963-298.955 298.842h1162.616v112.828H757.43l298.955 298.956-79.85 79.85-435.162-435.163 435.163-435.276Z" fill-rule="evenodd"/>
</svg>
